X:029 
T:Casheldoo Slide*, The
F:file ID: cre.5/029cash
B:CRE5.071 (gan ainm)
N:CRE has this tune in G, but to me it sounds
too high. The G version is here so you can
decide for yourself.
Q:160
M:12/8
R:slide
K:G
e|gfg edB G2g e2d|B3 AGAdB AGE|
gfg edB gfg e2f|gfg agf g3 g2:|
|:a|b3 bag a2a agf|g3 gfe dBd dBd|
b3 bag aga agf|1 g3 afg g3 g2:|\
[2 g3 agf g6|]

%%%

